public/assets/oil2.svg

<svg width="79" height="103" viewBox="0 0 79 103" fill="none" xmlns="http://www.w3.org/2000/svg">
<path d="M68.4979 98.0562H55.1338V102.999H68.4979V98.0562Z" fill="url(#paint0_linear_38_381)"/>
<path d="M25.2108 98.0562H11.8467V102.999H25.2108V98.0562Z" fill="url(#paint1_linear_38_381)"/>
<path d="M7.53397 98.0571H4.31274V103H7.53397V98.0571Z" fill="url(#paint2_linear_38_381)"/>
<path d="M78.3345 98.0556H0V0H78.3345C78.7072 0 79 0.280998 79 0.638633V97.417C79 97.7619 78.7072 98.0556 78.3345 98.0556Z" fill="url(#paint3_linear_38_381)"/>
<path d="M63.0934 93.9555H15.9197C15.1876 93.9555 14.5753 93.4063 14.5354 92.7038L9.59706 5.44106C9.55713 4.71302 10.1694 4.08716 10.9282 4.08716H68.085C68.8571 4.08716 69.456 4.70025 69.4161 5.44106L64.4645 92.7038C64.4245 93.4063 63.8255 93.9555 63.0934 93.9555Z" fill="#FEF7EC" stroke="#062023" stroke-width="3" stroke-miterlimit="10" stroke-linecap="round" stroke-linejoin="round"/>
<path d="M54.8142 89.0512H24.1859C22.7217 89.0512 21.5237 87.9016 21.5237 86.4966V73.5196C21.5237 72.1146 22.7217 70.9651 24.1859 70.9651H54.8142C56.2784 70.9651 57.4763 72.1146 57.4763 73.5196V86.4966C57.4763 87.9016 56.2784 89.0512 54.8142 89.0512Z" fill="url(#paint4_linear_38_381)"/>
<path d="M51.2203 82.1282C52.4407 82.1282 53.4299 81.1789 53.4299 80.008C53.4299 78.837 52.4407 77.8877 51.2203 77.8877C50 77.8877 49.0107 78.837 49.0107 80.008C49.0107 81.1789 50 82.1282 51.2203 82.1282Z" fill="#FEF7EC"/>
<path d="M27.7799 82.1282C29.0002 82.1282 29.9895 81.1789 29.9895 80.008C29.9895 78.837 29.0002 77.8877 27.7799 77.8877C26.5596 77.8877 25.5703 78.837 25.5703 80.008C25.5703 81.1789 26.5596 82.1282 27.7799 82.1282Z" fill="#FEF7EC"/>
<path d="M46.7745 75.4609H32.239V84.5551H46.7745V75.4609Z" fill="#062023"/>
<path d="M40.5552 59.5034C20.4641 59.5034 21.4065 38.1496 28.7881 30.5215C28.2444 32.4343 27.8578 37.1758 31.4218 39.0306C29.7908 34.5094 28.0391 26.1279 43.5997 15.5205C37.7645 23.1833 50.486 23.9716 47.2483 41.8593C51.9841 39.019 49.5679 27.3451 46.2214 25.0034C58.9429 29.9999 64.8627 59.5034 40.5552 59.5034Z" fill="#F5AE3D"/>
<path d="M40.809 58.738C33.1253 58.738 29.6097 52.049 32.8716 44.9426C32.5817 45.9512 33.524 48.1307 35.9886 47.922C35.1308 45.5339 34.261 40.4678 41.7634 36.7002C40.3862 41.4532 44.9891 42.427 45.0012 47.4699C45.9073 47.1105 47.2483 45.8469 47.2362 43.5167C51.6821 52.8953 47.4537 58.738 40.809 58.738Z" fill="#FEF7EC"/>
<defs>
<linearGradient id="paint0_linear_38_381" x1="55.1303" y1="100.527" x2="68.4931" y2="100.527" gradientUnits="userSpaceOnUse">
<stop offset="0.00249518" stop-color="#28C985"/>
<stop offset="1" stop-color="#18808A"/>
</linearGradient>
<linearGradient id="paint1_linear_38_381" x1="11.8436" y1="100.527" x2="25.2064" y2="100.527" gradientUnits="userSpaceOnUse">
<stop offset="0.00249518" stop-color="#28C985"/>
<stop offset="1" stop-color="#18808A"/>
</linearGradient>
<linearGradient id="paint2_linear_38_381" x1="4.31252" y1="100.528" x2="7.53992" y2="100.528" gradientUnits="userSpaceOnUse">
<stop offset="0.00249518" stop-color="#28C985"/>
<stop offset="1" stop-color="#18808A"/>
</linearGradient>
<linearGradient id="paint3_linear_38_381" x1="-5.8923" y1="5.65404" x2="80.7788" y2="95.9773" gradientUnits="userSpaceOnUse">
<stop offset="0.00249518" stop-color="#28C985"/>
<stop offset="1" stop-color="#18808A"/>
</linearGradient>
<linearGradient id="paint4_linear_38_381" x1="26.5847" y1="67.608" x2="51.3551" y2="93.4222" gradientUnits="userSpaceOnUse">
<stop offset="0.00249518" stop-color="#28C985"/>
<stop offset="1" stop-color="#18808A"/>
</linearGradient>
</defs>
</svg>

<svg width="79" height="103" fill="none" xmlns="http://www.w3.org/2000/svg"><path d="M68.498 98.056H55.134V103h13.364v-4.943z" fill="url(#a)"/><path d="M25.21 98.056H11.848V103H25.21v-4.943z" fill="url(#b)"/><path d="M7.534 98.057H4.313V103h3.221v-4.943z" fill="url(#c)"/><path d="M78.335 98.056H0V0h78.335c.372 0 .665.281.665.639v96.778a.654.654 0 0 1-.665.639z" fill="url(#d)"/><path d="M63.093 93.956H15.92c-.732 0-1.345-.55-1.385-1.252L9.597 5.44c-.04-.728.572-1.354 1.331-1.354h57.157c.772 0 1.371.613 1.331 1.354l-4.951 87.263c-.04.702-.64 1.252-1.372 1.252z" fill="#FEF7EC" stroke="#062023" stroke-width="3" stroke-miterlimit="10" stroke-linecap="round" stroke-linejoin="round"/><path d="M54.814 89.051H24.186c-1.464 0-2.662-1.15-2.662-2.554V73.52c0-1.405 1.198-2.555 2.662-2.555h30.628c1.464 0 2.662 1.15 2.662 2.555v12.977c0 1.405-1.198 2.554-2.662 2.554z" fill="url(#e)"/><path d="M51.22 82.128c1.22 0 2.21-.95 2.21-2.12 0-1.171-.99-2.12-2.21-2.12s-2.21.949-2.21 2.12c0 1.17.99 2.12 2.21 2.12zM27.78 82.128c1.22 0 2.21-.95 2.21-2.12 0-1.171-.99-2.12-2.21-2.12s-2.21.949-2.21 2.12c0 1.17.99 2.12 2.21 2.12z" fill="#FEF7EC"/><path d="M46.775 75.46H32.239v9.095h14.536v-9.094z" fill="#062023"/><path d="M40.555 59.503c-20.09 0-19.148-21.353-11.767-28.982-.544 1.913-.93 6.655 2.634 8.51-1.631-4.522-3.383-12.903 12.178-23.51-5.836 7.662 6.886 8.45 3.648 26.338 4.736-2.84 2.32-14.514-1.027-16.856 12.722 4.997 18.642 34.5-5.666 34.5z" fill="#F5AE3D"/><path d="M40.809 58.738c-7.684 0-11.2-6.689-7.937-13.795-.29 1.008.652 3.188 3.117 2.979-.858-2.388-1.728-7.454 5.774-11.222-1.377 4.753 3.226 5.727 3.238 10.77.906-.36 2.247-1.623 2.235-3.953 4.446 9.378.218 15.221-6.427 15.221z" fill="#FEF7EC"/><defs><linearGradient id="a" x1="55.13" y1="100.527" x2="68.493" y2="100.527" gradientUnits="userSpaceOnUse"><stop offset=".002" stop-color="#28C985"/><stop offset="1" stop-color="#18808A"/></linearGradient><linearGradient id="b" x1="11.844" y1="100.527" x2="25.206" y2="100.527" gradientUnits="userSpaceOnUse"><stop offset=".002" stop-color="#28C985"/><stop offset="1" stop-color="#18808A"/></linearGradient><linearGradient id="c" x1="4.313" y1="100.528" x2="7.54" y2="100.528" gradientUnits="userSpaceOnUse"><stop offset=".002" stop-color="#28C985"/><stop offset="1" stop-color="#18808A"/></linearGradient><linearGradient id="d" x1="-5.892" y1="5.654" x2="80.779" y2="95.977" gradientUnits="userSpaceOnUse"><stop offset=".002" stop-color="#28C985"/><stop offset="1" stop-color="#18808A"/></linearGradient><linearGradient id="e" x1="26.585" y1="67.608" x2="51.355" y2="93.422" gradientUnits="userSpaceOnUse"><stop offset=".002" stop-color="#28C985"/><stop offset="1" stop-color="#18808A"/></linearGradient></defs></svg>
